static/icons/logo.svg

<svg height="29" viewBox="0 0 110 29" width="110" xmlns="http://www.w3.org/2000/svg"><g fill="none" fill-rule="evenodd"><g fill="#ff6100"><path d="m64.5182281 4.484375h2.5234375l1.5865531 8.0390625 2.9993844-8.0390625h2.2421875l-4.2909595 11.515625h-2.40625l-1.6577647-8.1796875-3.0453603 8.1796875h-2.2421875zm19.3450677 2.0390625h-6.09375l-.9075432 2.4453125h5.59375l-.7502341 2h-5.59375l-1.0995591 2.9609375h6.375l-.7693158 2.0703125h-8.7265625l4.2909595-11.515625h8.4453125zm4.4908698-2.0390625-.9396144 6.59375-.3567518 1.8359375 1.0067411-1.796875 3.7740001-6.6328125h2.5390625l-1.0958644 6.59375-.3333143 1.8359375 1.009545-1.765625 4.0290087-6.6640625h2.4453129l-7.5331474 11.515625h-2.296875l1.1184029-6.734375.4193584-2.2265625-1.2318584 2.2265625-3.8996529 6.734375h-2.234375l1.0253345-11.515625zm12.3021994 7.9609375c-.120769.5260443-.123898.9192695-.009385 1.1796875.215705.4739607.797509.7109375 1.745431.7109375.567711 0 1.051682-.0624994 1.451926-.1875.762361-.2395845 1.263415-.6848926 1.503178-1.3359375.144271-.3802102.087269-.6744781-.171009-.8828125-.225693-.1805565-.610727-.3425922-1.155113-.4861109l-1.331853-.3263891c-1.097223-.2708347-1.815677-.5651026-2.155383-.8828125-.5763163-.53125266-.6541093-1.36197352-.233382-2.4921875.384034-1.03125516 1.078636-1.88801742 2.083828-2.5703125 1.005191-.68229508 2.234335-1.0234375 3.687467-1.0234375 1.213548 0 2.128138.32161137 2.743799.96484375.61566.64323238.716029 1.5768168.301109 2.80078125h-2.3125c.220399-.6927118.103972-1.18489437-.349284-1.4765625-.302449-.1927093-.732314-.2890625-1.289608-.2890625-.619795 0-1.161959.12499875-1.626509.375s-.77959.59895609-.94513 1.046875c-.154488.41146039-.086552.71874898.203811.921875.181422.13541734.622103.29426992 1.322057.4765625l1.806432.4765625c.789531.20833437 1.34122.48697742 1.655084.8359375.486105.5416694.537557 1.3255157.154358 2.3515625-.392581 1.0520886-1.121146 1.9257778-2.185716 2.6210937-1.064571.695316-2.331216 1.0429688-3.799973 1.0429688-1.500008 0-2.5518826-.3424445-3.1556568-1.0273438-.6037741-.6848992-.6820578-1.626296-.2348532-2.8242187z" fill-rule="nonzero"/><path d="m10.0674579 0h48.9325421l-7.2639947 19.067986c-.4431496 1.1632678-1.5586445 1.932014-2.8034632 1.932014h-48.9325421l7.26399466-19.06798598c.44314963-1.16326778 1.55864454-1.93201402 2.80346324-1.93201402z"/><path d="m31.5 14-13.767 7h-8.233l-.5 1h6.767l-13.767 7 7.5-15z"/></g><text fill="#fff" font-family="Helvetica-Bold, Helvetica" font-size="16" font-weight="bold"><tspan x="12" y="16">24</tspan></text><text fill="#fff" font-family="Helvetica-Bold, Helvetica" font-size="16" font-weight="bold"><tspan x="32" y="16">/</tspan></text><text fill="#fff" font-family="Helvetica-Bold, Helvetica" font-size="16" font-weight="bold"><tspan x="39" y="16">7</tspan></text></g></svg>

<?xml version="1.0" encoding="UTF-8"?>
<svg width="110px" height="29px" viewBox="0 0 110 29" version="1.1" xmlns="http://www.w3.org/2000/svg" xmlns:xlink="http://www.w3.org/1999/xlink">
    <!-- Generator: Sketch 58 (84663) - https://sketch.com -->
    <title>logo</title>
    <desc>Created with Sketch.</desc>
    <g id="Specs" stroke="none" stroke-width="1" fill="none" fill-rule="evenodd">
        <g id="Desktop-1360" transform="translate(-191.000000, -27.000000)">
            <g id="Group-3" transform="translate(0.000000, 27.000000)">
                <g id="logo" transform="translate(191.000000, 0.000000)">
                    <path d="M64.5182281,4.484375 L67.0416656,4.484375 L68.6282187,12.5234375 L71.6276031,4.484375 L73.8697906,4.484375 L69.5788311,16 L67.1725811,16 L65.5148164,7.8203125 L62.4694561,16 L60.2272686,16 L64.5182281,4.484375 Z M83.8632958,6.5234375 L77.7695458,6.5234375 L76.8620026,8.96875 L82.4557526,8.96875 L81.7055185,10.96875 L76.1117685,10.96875 L75.0122094,13.9296875 L81.3872094,13.9296875 L80.6178936,16 L71.8913311,16 L76.1822906,4.484375 L84.6276031,4.484375 L83.8632958,6.5234375 Z M88.3541656,4.484375 L87.4145512,11.078125 L87.0577994,12.9140625 L88.0645405,11.1171875 L91.8385406,4.484375 L94.3776031,4.484375 L93.2817387,11.078125 L92.9484244,12.9140625 L93.9579694,11.1484375 L97.9869781,4.484375 L100.432291,4.484375 L92.8991436,16 L90.6022686,16 L91.7206715,9.265625 L92.1400299,7.0390625 L90.9081715,9.265625 L87.0085186,16 L84.7741436,16 L85.7994781,4.484375 L88.3541656,4.484375 Z M100.656365,12.4453125 C100.535596,12.9713568 100.532467,13.364582 100.64698,13.625 C100.862685,14.0989607 101.444489,14.3359375 102.392411,14.3359375 C102.960122,14.3359375 103.444093,14.2734381 103.844337,14.1484375 C104.606698,13.908853 105.107752,13.4635449 105.347515,12.8125 C105.491786,12.4322898 105.434784,12.1380219 105.176506,11.9296875 C104.950813,11.749131 104.565779,11.5870953 104.021393,11.4435766 L102.68954,11.1171875 C101.592317,10.8463528 100.873863,10.5520849 100.534157,10.234375 C99.9578407,9.70312234 99.8800477,8.87240148 100.300775,7.7421875 C100.684809,6.71093234 101.379411,5.85417008 102.384603,5.171875 C103.389794,4.48957992 104.618938,4.1484375 106.07207,4.1484375 C107.285618,4.1484375 108.200208,4.47004887 108.815869,5.11328125 C109.431529,5.75651363 109.531898,6.69009805 109.116978,7.9140625 L106.804478,7.9140625 C107.024877,7.2213507 106.90845,6.72916813 106.455194,6.4375 C106.152745,6.2447907 105.72288,6.1484375 105.165586,6.1484375 C104.545791,6.1484375 104.003627,6.27343625 103.539077,6.5234375 C103.074527,6.77343875 102.759487,7.12239359 102.593947,7.5703125 C102.439459,7.98177289 102.507395,8.28906148 102.797758,8.4921875 C102.97918,8.62760484 103.419861,8.78645742 104.119815,8.96875 L105.926247,9.4453125 C106.715778,9.65364687 107.267467,9.93228992 107.581331,10.28125 C108.067436,10.8229194 108.118888,11.6067657 107.735689,12.6328125 C107.343108,13.6849011 106.614543,14.5585903 105.549973,15.2539062 C104.485402,15.9492222 103.218757,16.296875 101.75,16.296875 C100.249992,16.296875 99.1981174,15.9544305 98.5943432,15.2695312 C97.9905691,14.584632 97.9122854,13.6432352 98.35949,12.4453125 L100.656365,12.4453125 Z" id="NEWS" fill="#FF6100" fill-rule="nonzero"></path>
                    <path d="M10.0674579,0 L59,0 L59,0 L51.7360053,19.067986 C51.2928557,20.2312538 50.1773608,21 48.9325421,21 L0,21 L0,21 L7.26399466,1.93201402 C7.70714429,0.768746244 8.8226392,1.56093711e-15 10.0674579,0 Z" id="Rectangle" fill="#FF6100"></path>
                    <path d="M31.5,14 L17.733,21 L9.5,21 L9,22 L15.767,22 L2,29 L9.5,14 L31.5,14 Z" id="Combined-Shape" fill="#FF6100"></path>
                    <text id="24" font-family="Helvetica-Bold, Helvetica" font-size="16" font-weight="bold" fill="#FFFFFF">
                        <tspan x="12" y="16">24</tspan>
                    </text>
                    <text id="/" font-family="Helvetica-Bold, Helvetica" font-size="16" font-weight="bold" fill="#FFFFFF">
                        <tspan x="32" y="16">/</tspan>
                    </text>
                    <text id="7" font-family="Helvetica-Bold, Helvetica" font-size="16" font-weight="bold" fill="#FFFFFF">
                        <tspan x="39" y="16">7</tspan>
                    </text>
                </g>
            </g>
        </g>
    </g>
</svg>
